X:3
T:Ãœbermut-Walzer  CG 5-  (wz06838) 
S:Hanny Christen. Bd.V  Basel II, Jura. S.24f  (wz06838) orig. F,C
S:Basel II. TÃ¤nze aus Augst. S.6-42.
S:Ãœberliefert durch Erwin Baumgartner (*1878) und Hans Tschudin (*1886)
%%MIDI program 21
R:Walzer
M:3/4
L:1/4
K:Cmaj%%MIDI gchordon
"C"ECA | G3 | ECA | G3 | EGc | "G7"c>BB | DFA | "C"A>GG | ECA | G3 | ECA | 
G3 | EGc | "G7"c>BB | d/2d/2dd | "C"czz :: [K:Gmaj] "G"de^d | "D7"=d>cc | cBA | "G"B3 | zdg | "D7"g2f | 
fce | "G"e2d | de^d | "D7"=d>cc | cBA | "G"G2A | BGe | d3 | "D7"cEF | "G"G"_>Teil A"zz :| 
"G"d>dd | g>dd | "D7"cBA | "G"Gzz |: [K:Cmaj] "C"cEG | edc | "G7"BDF | d3 | BDF | fed | 
"C"cEG | e3 | cEG | edc | "G7"BDF | d3 | BDF | fed | "C"c>cc | czz :| 
W:Parts: ABAC
%W:Ãœbermut-Walzer, nach Hans Tschudin
% wz06838
% Nov 16, 2017

